X: 1
T:Flowers of Brooklyn, The
M:C|
L:1/8
C:Billy McComiskey
R:reel
K:G
B2AB GEED|cAAG FAdc|Bg~g2 edcB|AF~F2 dBBA|
!B2AB GEED|cAAG FAdc|Bg~g2 ecAF|GBAF ~G3B:|
!|:dg~g2 agfg|ea~a2 c'a~a2|~g3e dGBd|cAAG FAdc|
![1 d~g3 agfg|e~a3 c'~a3|gbag fdcA|GBAF ~G3B:|
![2 B2AB GEED|cAAG FAdc|Bg~g2 ecAF|GBAF ~G3A||
